assets/images/engine.svg

<svg width="18" height="14" viewBox="0 0 18 14" fill="none" xmlns="http://www.w3.org/2000/svg">
<path d="M16.0714 3.33333H15.4286C15.258 3.33333 15.0946 3.40357 14.974 3.5286C14.8534 3.65362 14.7857 3.82319 14.7857 4V6H12.8571V4.66667C12.8571 4.31305 12.7217 3.97391 12.4806 3.72386C12.2395 3.47381 11.9124 3.33333 11.5714 3.33333H9V2H11.5714C11.742 2 11.9054 1.92976 12.026 1.80474C12.1466 1.67971 12.2143 1.51014 12.2143 1.33333V0.666667C12.2143 0.489856 12.1466 0.320288 12.026 0.195264C11.9054 0.0702399 11.742 0 11.5714 0H4.5C4.3295 0 4.16599 0.0702399 4.04543 0.195264C3.92487 0.320288 3.85714 0.489856 3.85714 0.666667V1.33333C3.85714 1.51014 3.92487 1.67971 4.04543 1.80474C4.16599 1.92976 4.3295 2 4.5 2H7.07143V3.33333H4.5C4.15901 3.33333 3.83198 3.47381 3.59087 3.72386C3.34975 3.97391 3.21429 4.31305 3.21429 4.66667V7.33333H1.92857V5.33333C1.92857 5.15652 1.86084 4.98695 1.74028 4.86193C1.61972 4.73691 1.45621 4.66667 1.28571 4.66667H0.642857C0.472361 4.66667 0.308849 4.73691 0.18829 4.86193C0.0677315 4.98695 0 5.15652 0 5.33333V11.3333C0 11.5102 0.0677315 11.6797 0.18829 11.8047C0.308849 11.9298 0.472361 12 0.642857 12H1.28571C1.45621 12 1.61972 11.9298 1.74028 11.8047C1.86084 11.6797 1.92857 11.5102 1.92857 11.3333V9.33333H3.21429V11.0613C3.2143 11.2514 3.25348 11.4391 3.32921 11.6123C3.40493 11.7853 3.51545 11.9395 3.65336 12.0646L5.42251 13.67C5.65651 13.8827 5.95736 14 6.26851 14H11.5714C11.9124 14 12.2395 13.8595 12.4806 13.6095C12.7217 13.3595 12.8571 13.0203 12.8571 12.6667V10.6667H14.7857V12.6667C14.7857 12.8435 14.8534 13.013 14.974 13.138C15.0946 13.2631 15.258 13.3333 15.4286 13.3333H16.0714C16.5829 13.3333 17.0735 13.1227 17.4351 12.7475C17.7969 12.3725 18 11.8638 18 11.3333V5.33333C18 4.8029 17.7969 4.2942 17.4351 3.91911C17.0735 3.54404 16.5829 3.33333 16.0714 3.33333ZM10.1777 9.03669L8.892 11.0367C8.69462 11.3434 8.35714 11.3333 8.35714 11.3333V9.33333H7.07143C6.95515 9.33323 6.84106 9.30048 6.74131 9.23851C6.64157 9.17653 6.55991 9.08768 6.50501 8.98133C6.45013 8.87499 6.42408 8.75531 6.42964 8.63477C6.4352 8.51435 6.47215 8.39776 6.53657 8.29728L7.82229 6.29733C8.019 5.99 8.35714 6 8.35714 6V8H9.64286C9.75929 8 9.87346 8.03275 9.97334 8.09472C10.0731 8.1568 10.1549 8.24576 10.2098 8.35211C10.2647 8.45856 10.2907 8.57845 10.2851 8.69899C10.2794 8.81952 10.2423 8.93621 10.1777 9.03669Z" fill="#E30000"/>
</svg>

<svg xmlns="http://www.w3.org/2000/svg" width="18" height="14" fill="none"><path fill="#E30000" d="M16.071 3.333h-.642c-.171 0-.334.07-.455.196a.68.68 0 0 0-.188.471v2h-1.929V4.667c0-.354-.135-.693-.376-.943a1.26 1.26 0 0 0-.91-.39H9V2h2.571c.171 0 .334-.07.455-.195a.68.68 0 0 0 .188-.472V.667a.68.68 0 0 0-.188-.472.63.63 0 0 0-.455-.195H4.5c-.17 0-.334.07-.455.195a.68.68 0 0 0-.188.472v.666a.68.68 0 0 0 .188.472C4.166 1.93 4.33 2 4.5 2h2.571v1.333H4.5c-.341 0-.668.14-.91.39-.24.25-.376.59-.376.944v2.666H1.93v-2a.68.68 0 0 0-.189-.471.63.63 0 0 0-.454-.195H.643c-.17 0-.334.07-.455.195A.68.68 0 0 0 0 5.333v6a.68.68 0 0 0 .188.472c.12.125.284.195.455.195h.643c.17 0 .334-.07.454-.195a.68.68 0 0 0 .189-.472v-2h1.285v1.728c0 .19.04.378.115.551s.186.328.324.453l1.77 1.605c.234.213.534.33.846.33h5.302c.341 0 .668-.14.91-.39.24-.25.376-.59.376-.943v-2h1.929v2c0 .177.067.346.188.471.12.125.284.195.455.195h.642c.512 0 1.002-.21 1.364-.585s.565-.884.565-1.415v-6c0-.53-.203-1.039-.565-1.414a1.9 1.9 0 0 0-1.364-.586m-5.893 5.704-1.286 2c-.197.306-.535.296-.535.296v-2H7.071a.63.63 0 0 1-.33-.094.66.66 0 0 1-.236-.258.69.69 0 0 1 .032-.684l1.285-2C8.02 5.99 8.357 6 8.357 6v2h1.286c.116 0 .23.033.33.095s.182.15.237.257a.69.69 0 0 1-.032.685"/></svg>
